X: 1
T: The Dunmore Lasses
R: reel
M: 4/4
L: 1/8
K: Emin
~E3F ~G3A|Be~e2 Be~e2|~E3F G2BG|A2BA GEFD|
~E3F ~G3A|Beed ~e3f|(3.g.f.e fd eBdB|AcBA GEFD:|
g2eg fedc|Be~e2 Be~e2|g2eg fedB|AcBA GE~E2|
g2eg fedc|Beed ~e3f|(3.g.f.e fd eBdB|AcBA GEE2:|


Tune 462	Setting 24999

